X: 11783
T: Elizabeth Kelly's Delight
R: slip jig
M: 9/8
K: Bminor
|:~B3 BcB BAF|~B3 A2 F EFA|~B3 BcB BAF|ABA ~A2 F EFA:|
d2 B cBA BAF|d2 B cAF EFA|d2 B cBA BAF|ABA ~A2 F EFA|
d2 B cBA BAF|Fd z cAF EFA|d2 B cBA BAF|ABA ~A2 F EFA||

